X:1
T:Quand mon mary vient
T:Jean de Castro
T:Source : Livre de chansons à 3 parties---Paris---A.le Roy & R.Ballard---1575. Editor : André Vierendeels (26/09/15).
T:Notes : Original clefs : G2, C2, C3 Editorial accidentals above the staff 3rd voice possibly by second altus
T:Quand mon mary vient
C:Jean de Castro
%%score [ 1 2 3 ]
L:1/8
Q:1/4=120
M:2/2
K:F
V:1 treble nm="Superius" snm="S"
V:2 treble nm="Altus" snm="A"
V:3 treble-8 nm="Tenor" snm="T"
V:1
 G4 d2 e2 | f6 e2 | d4 c4 | d4 z2 d2 | B4 A4 | G2 d2 d3 e | f4 d4 | c4 A4 | =B4 d4- | d2 e2 d2 d2 | %10
w: Quand mon ma-|ry vient|de de-|hors, quand|mon ma-|ry, quand mon ma-|ry vient|de de-|hors, ma|_ ren- t'est d'e-|
 c2 B2 A4 | G4 z2 A2 | B2 B4 A2 | c2 d2 c4 | B4 d2 d2 | f6 e2 | d4 c4 | d2 d4 d2 | B4 A4 | %19
w: stre ba- tu-|e, ma|ren- t'est d'e-|stre ba- tu-|e, il prend|la cuil-|ler du|pot, la cuil-|ler du|
 G2 d4 d2 | f4 d4 | c4 A4 | =B4 d4- | d2 _e2 d2 d2 | c2 B2 A4 | B4 z2 A2 | B2 B4 A2 | c2 d2 c4 | %28
w: pot, il prend|la cuil-|ler du|pot, à|_ la te- ste'il|me la ru-|e, à|la te- ste'il|me la ru-|
 =B4 d4- | d4 e4 | f6 d2 | c2 d2 B4 | A4 A4 | B4 c4 | z4 A4 | A2 A2 G4 | A4 A2 A2 | =B4 d4 | %38
w: e, j'ay|_ grand|peur qu'il|ne me tu-|e, j'ay|grand peur|qu'il|ne me tu-|e, c'est un|faux vi-|
 d4 c4 | d4 f2 f2 | e2 d2 d2 c2 | d8 | z4 A2 A2 | A8 | z4 d2 d2 | c2 =B2 c2 A2 | G4 d2 d2 | %47
w: lain ja-|loux, c'est un|faux vi- lain ja-|loux,|ri- o-|teux,|je suis|jeu- n'et il est|vieux, je suis|
 c2 =B2 c2 A2 | G8 | z4 A2 A2 | A8 | z4 d2 d2 | c2 =B2 c2 A2 | G4 d2 d2 | c2 =B2 c2 A2 | G8- | %56
w: jeu- n'et il est|vieux,|ri- o-|teux,|je suis|jeu- n'et il est|vieux, je suis|jeu- n'et il est|vieux.|
 !fermata!G8 |] %57
w: _|
V:2
 z8 | z8 | D4 G3 A | B4 A4 | G4 F4 | G2 B2 B2 B2 | A4 G4 | G4 ^F4 | G4 =B4- | B2 c2 A2 _B2 | %10
w: ||Quand mon ma-|ry vient|de de-|hors, quand mon ma-|ry vient|de de-|hors, ma|_ ren- t'est d'e-|
 A2 G2 ^F4 |"^-natural" G4 F4- | F2 G2 F2 F2 | E2 D2 A4 | D4 z4 | z8 | D4 G4 | B4 A4 |"^#" G4 F4 | %19
w: stre ba- tu-|e, ma|_ ren- t'est d'e-|stre ba- tu-|e,||il prend|la cuil-|ler du|
 G2 B4 B2 | A4 G4 | G4 ^F4 | G4 B4- | B2 c2 A2 B2 | A2 G2 ^F4 |"^-natural" G4 F4- | F2 G2 F2 F2 | %27
w: pot, il prend|la cuil-|ler du|pot, à|_ la te- ste'il|me la ru-|e, à|_ la te- ste'il|
 E2 D2 A4 | D8 | G8 | A4 B2 B2 | A2 F2 G4 | F4 F4- | F4 G4 | A6 F2 | E2 F2 D4 | E4 ^F2 F2 | G6 D2 | %38
w: me la ru-|e,|j'ay|grand peur qu'il|ne me tu-|e, j'ay|_ grand|peur qu'il|ne me tu-|e, c'est un|faux vi-|
 F4 E4 | D4 D2 D2 | E2 F2 G2 E2 | D2 A2 B2 B2 | A4 F2 F2 | F4 F2 E2 | F4 B2 B2 | A2 G2 G2 ^F2 | %46
w: lain ja-|loux, c'est un|faux vi- lain ja-|loux, c'est un vi-|lain ri- o-|teux, gro- me-|leux, je suis|jeu- n'et il est|
 G2 B4 B2 | A2 G2 G2 ^F2 | G2 =B2 c2 c2 | A4 F2 F2 | F4 F2 E2 | F4 B2 B2 |"^#" A2 G2 G2 F2 | %53
w: vieux, je suis|jeu- n'et il est|vieux, c'est un vi-|lain, ri- o-|teux, gro- me-|leux, je suis|jeu- n'et il est|
 G2 B4 B2 | A2 G2 G2 ^F2 | G2 D2 _E2 E2 | !fermata!D8 |] %57
w: vieux, je suis|jeu- n'et il est|vieux, et il est|vieux.|
V:3
 g4 g2 g2 | f4 d4 | f4 e4 | d8 | z8 | G4 B3 c | d4 B4 | c4 d4 | G4 z2 g2- | g2 c2 d2 B2 | %10
w: Quand mon ma-|ry vient|de de-|hors,||quand mon ma-|ry vient|de de-|hors, ma|_ ren- t'est d'e-|
 F2 G2 d4 | G4 d4- | d2 _e2 d2 d2 | c2 B2 A4 | G4 g2 g2 | f4 d4 | f4 e4 | d8 | z8 | G4 B4 | d4 B4 | %21
w: stre ba- tu-|e, ma|_ ren- t'est d'e-|stre ba- tu-|e, il prend|la cuil-|ler du|pot,||il prend|la cuil-|
 c4 d4 | G4 z2 g2- | g2 c2 d2 B2 | F2 G2 d4 | G4 d4- | d2 _e2 d2 d2 | c2 B2 A4 | G8 | z8 | z8 | %31
w: ler du|pot, à|_ la te- ste'il|me la ru-|e, à-|_ la te- ste'il|me le ru-|e,|||
 z8 | z4 d4- | d4 e4 | f6 d2 | ^c2 d2 B4 | A4 d2 d2 | G4 B4 | A4 A4 | d4 B2 B2 | c2 d2 G2 A2 | %41
w: |j'ay|_ grand|peur qu'il|ne me tu-|e, c'est un|faux vi-|lain ja-|loux, c'est un|faux vi- lain ja-|
 d2 d2 B2 G2 | d8 | z4 d2 A2 | d4 B2 B2 | c2 G2 c2 d2 | G4 B2 B2 | c2 G2 c2 d2 | G2 g2 c2 c2 | d8 | %50
w: loux, c'est un vi-|lain|gro- me-|leux, je suis|jeu- n'et il est|vieux, je suis|jeu- n'et il est|vieux, c'est un vi-|lain|
 z4 d2 A2 | d4 B2 B2 | c2 G2 c2 d2 | G4 B2 B2 | c2 G2 c2 d2 | G2 G2 c2 c2 | !fermata!G8 |] %57
w: gro- me-|leux, je suis|jeu- n'et il est|vieux, je suis|jeu- n'et il est|vieux, et il est|vieux.|

